X:378
%%etbk:tnset id:107,pos:1,rep:3x,ant:Box erst ab 2.x
%%etbk:wsite http://www.thesession.org/tunes/display/204
%%etbk:pldat 2016-05-05T11:25,2016-05-03T16:24,2016-05-02T18:08,2016-04-25T18:04,2016-04-09T14:37,2016-04-08T18:15,2016-04-07T15:27,2016-04-05T15:38,2016-04-04T18:34,2016-04-03T13:49,2016-04-02T13:46,2016-03-31T15:22,2016-03-30T16:09,2016-03-28T15:05,2016-03-22T15:32,2016-01-02T13:07,2015-12-03T18:50,2015-12-02T17:32,2015-12-01T16:00,2015-11-30T18:28,2015-11-26T18:21,2015-11-04T15:29,2015-11-03T16:08,2015-11-02T19:04,2015-11-01T15:40,2015-10-31T16:56,2015-10-27T16:35,2015-10-24T14:54,2015-10-19T17:56,2015-10-15T18:33,2015-10-08T18:30,2015-10-05T19:23,2015-09-30T15:35,2015-09-06T15:32,2015-02-18T17:34,2015-01-25T16:02,2014-10-30T18:55,2014-10-29T17:04,2014-10-28T17:37,2014-10-27T19:29,2014-10-25T15:15,2014-10-23T18:41,2014-10-19T15:43,2014-10-13T18:46,2014-10-09T09:30,2014-09-25T17:36,2014-08-05T18:31,2014-07-02T10:33,2014-02-07T15:11,2014-01-22T16:37,2014-01-21T17:38,2014-01-19T13:57,2014-01-16T19:13,2014-01-13T18:01,2014-01-08T15:37,2014-01-06T18:44,2013-12-28T13:44,2013-12-27T16:58,2013-12-16T18:53,2013-10-18T16:10,2013-10-16T15:39,2013-10-13T15:54,2013-10-05T15:32,2013-10-02T15:10,2013-05-23T18:01
T: Humours Of Whiskey No. 1, The 
Z: Piano Box Version by Martin Fleischmann
H: Created 2013-02-19 /  Last Modified 2013-02-19
M: 9/8
L: 1/8
R: slip jig
K: Dmaj
|:!3!G2!4!A !2!B!5!ee Bee|!1!G!2!G!1!G !5!B!3!G!5!B !4!A!2!F!1!D|!3!G2!4!A !2!B!5!ee Bee|!4!dcd !2!AA!1!G !3!FED:|
|:!3!d2e !5!fdf !4!e!2!c!1!A|!3!d2!4!e !3!fdf !4!gfe|!1!d2!4!e !5!fdf !4!ecA|!2!Bcd !2!AAG FED:||


